packages/icons/src/emoji/svg/credit-card.svg

<svg width="120" height="120" viewBox="0 0 120 120" fill="none" xmlns="http://www.w3.org/2000/svg">
<path d="M117.9 60.8532C120.075 63.6563 119.813 67.0501 117.263 68.3813L40.0034 108.834C36.6097 110.597 32.1472 109.144 30.1222 105.6L1.36906 55.3782C-0.309069 52.4438 0.994055 49.0032 4.20968 47.7188L78.7316 18.0282C81.2253 17.0438 84.7409 18.1688 86.5972 20.5594L117.9 60.8532Z" fill="#FCC21B"/>
<mask id="mask0_212_421" style="mask-type:luminance" maskUnits="userSpaceOnUse" x="0" y="17" width="120" height="93">
<path d="M117.9 60.8532C120.075 63.6563 119.813 67.0501 117.263 68.3813L40.0034 108.834C36.6097 110.597 32.1472 109.144 30.1222 105.6L1.36906 55.3782C-0.309069 52.4438 0.994055 49.0032 4.20968 47.7188L78.7316 18.0282C81.2253 17.0438 84.7409 18.1688 86.5972 20.5594L117.9 60.8532Z" fill="white"/>
</mask>
<g mask="url(#mask0_212_421)">
<path d="M100.181 33.5814L7.90332 74.447L-0.0185547 60.422L91.4346 22.4158L100.181 33.5814Z" fill="#2F2F2F"/>
</g>
<path d="M111.806 60.5812C112.875 61.9874 112.725 63.6749 111.431 64.3218L101.034 69.628C99.6936 70.3124 97.7154 69.6749 96.6467 68.2124L90.5436 59.8406C89.5217 58.4249 89.7748 56.7562 91.1061 56.1187L101.447 51.1968C102.722 50.5874 104.597 51.1968 105.647 52.5468L111.806 60.5812Z" fill="white"/>
</svg>

<svg xmlns="http://www.w3.org/2000/svg" fill="none" aria-hidden="true" data-slot="icon" viewBox="0 0 120 120"><path fill="#FCC21B" d="M117.9 60.853c2.175 2.803 1.913 6.197-.637 7.528l-77.26 40.453c-3.393 1.763-7.856.31-9.88-3.234L1.368 55.378c-1.678-2.934-.375-6.375 2.84-7.66l74.523-29.69c2.493-.984 6.009.14 7.865 2.531z"/><mask id="a" width="120" height="93" x="0" y="17" maskUnits="userSpaceOnUse" style="mask-type:luminance"><path fill="#fff" d="M117.9 60.853c2.175 2.803 1.913 6.197-.637 7.528l-77.26 40.453c-3.393 1.763-7.856.31-9.88-3.234L1.368 55.378c-1.678-2.934-.375-6.375 2.84-7.66l74.523-29.69c2.493-.984 6.009.14 7.865 2.531z"/></mask><g mask="url(#a)"><path fill="#2F2F2F" d="M100.181 33.581 7.903 74.447-.019 60.422l91.454-38.006z"/></g><path fill="#fff" d="M111.806 60.581c1.069 1.406.919 3.094-.375 3.74l-10.397 5.307c-1.34.684-3.319.047-4.387-1.416l-6.103-8.371c-1.022-1.416-.77-3.085.562-3.722l10.341-4.922c1.275-.61 3.15 0 4.2 1.35z"/></svg>
